X: 2
T: Martin Rochford's
R: reel
M: 4/4
L: 1/8
K: Fmaj
F2C2 FGAB|cAdA cAGA|F2CD F2dA|cAGB ADDE|F2C2 FGAB|cAdA cAGA|F2CD F2dA|cAGB ADD2||f3f edcd|Addc Adde|f2af edcA|cAGB ADD2|f3f edcd|Addc d3e|faaf eggd|cAGB ADDE||


Tune 1062	Setting 14289

